assets/Pouring liquid/Flat/pouring_liquid_flat.svg

<svg width="32" height="32" viewBox="0 0 32 32" fill="none" xmlns="http://www.w3.org/2000/svg">
<path d="M17.4839 20.4418L2.34945 13.945C2.08472 13.8285 1.93811 13.5353 2.01461 13.2498L4.36336 4.48417C4.43986 4.19866 4.70905 4.01036 5.00094 4.04951L21.3562 5.99037C21.7054 6.03184 21.9399 6.38115 21.8471 6.7274L18.2776 20.049C18.1848 20.3952 17.8071 20.5805 17.4839 20.4418Z" fill="#AEDDFF"/>
<path d="M19.5548 7.53275C19.8969 7.57381 20.141 7.88442 20.0999 8.22652C20.0589 8.56863 19.7483 8.81268 19.4062 8.77162L5.59639 7.11438L5.92264 5.89682L19.5548 7.53275Z" fill="white"/>
<path d="M8.14929 14.5295C8.30569 14.146 8.74341 13.9618 9.12696 14.1182L17.0545 17.3509C17.2452 17.4287 17.4329 17.5116 17.6175 17.5995L19.1626 17.6031C20.0842 17.5686 20.6891 18.5497 20.2518 19.3677L20.2497 19.3717C22.0374 21.0068 23.2498 23.2256 23.6239 25.6944L23.8224 27.0039H28.502C29.3293 27.0039 30 27.6746 30 28.502C30 29.3293 29.3293 30 28.502 30H15.498C14.6707 30 14 29.3293 14 28.502C14 27.6746 14.6707 27.0039 15.498 27.0039H22.3053L22.1409 25.9191C21.6526 22.6974 19.5053 19.9703 16.4881 18.7399L8.56057 15.5072C8.17702 15.3508 7.99288 14.9131 8.14929 14.5295ZM20.6631 25.5625C20.7418 25.8185 20.5001 26.0602 20.2432 25.9824L18.5758 25.4734C17.6484 25.2284 17.3419 24.0694 18.0252 23.3861L18.0442 23.3671C18.7375 22.6739 19.9155 22.9848 20.1632 23.9276L20.6631 25.5625ZM24.8721 25.9824C24.6151 26.0602 24.3735 25.8185 24.4522 25.5625L24.9521 23.9276C25.1998 22.9848 26.3778 22.6739 27.0711 23.3671L27.0901 23.3861C27.7734 24.0694 27.4669 25.2284 26.5395 25.4734L24.8721 25.9824Z" fill="#26C9FC"/>
<path d="M14.0879 27.9951C14.031 28.1534 14 28.324 14 28.5018C14 29.3291 14.6707 29.9998 15.498 29.9998H28.502C29.3293 29.9998 30 29.3291 30 28.5018C30 28.324 29.969 28.1534 29.9121 27.9951C29.7044 28.5731 29.1515 28.9865 28.502 28.9865H15.498C14.8485 28.9865 14.2956 28.5731 14.0879 27.9951Z" fill="#00A6ED"/>
</svg>

<svg xmlns="http://www.w3.org/2000/svg" width="32" height="32" fill="none"><path fill="#AEDDFF" d="M17.484 20.442 2.349 13.945a.593.593 0 0 1-.334-.695l2.348-8.766a.583.583 0 0 1 .638-.434l16.355 1.94c.35.042.584.391.491.737l-3.57 13.322a.588.588 0 0 1-.793.393Z"/><path fill="#fff" d="M19.555 7.533a.624.624 0 0 1-.149 1.239L5.596 7.114l.327-1.217 13.632 1.636Z"/><path fill="#26C9FC" d="M8.15 14.53a.75.75 0 0 1 .977-.412l7.928 3.233c.19.078.378.16.563.248l1.545.004c.921-.034 1.526.947 1.089 1.765l-.002.004c1.787 1.635 3 3.854 3.374 6.322l.198 1.31h4.68a1.498 1.498 0 0 1 0 2.996H15.498a1.498 1.498 0 0 1 0-2.996h6.807l-.164-1.085a9.25 9.25 0 0 0-5.653-7.18l-7.927-3.232a.75.75 0 0 1-.412-.977Zm12.513 11.033a.337.337 0 0 1-.42.42l-1.667-.51c-.928-.245-1.234-1.404-.55-2.087l.018-.019c.694-.693 1.872-.382 2.12.56l.5 1.636Zm4.21.42a.337.337 0 0 1-.42-.42l.5-1.635c.247-.943 1.425-1.254 2.118-.56l.02.018c.682.683.376 1.842-.552 2.087l-1.667.51Z"/><path fill="#00A6ED" d="M14.088 27.995A1.498 1.498 0 0 0 15.498 30h13.004a1.498 1.498 0 0 0 1.41-2.005c-.208.578-.76.991-1.41.991H15.498c-.65 0-1.202-.413-1.41-.99Z"/></svg>
